client/src/assets/icons/twitter-x.svg

<svg width="30" height="30" viewBox="0 0 30 30" fill="none" xmlns="http://www.w3.org/2000/svg">
<path d="M23.625 1.40625H28.2262L18.1763 12.9225L30 28.5938H20.7431L13.4925 19.0875L5.19562 28.5938H0.5925L11.3419 16.275L0 1.40625H9.49312L16.0462 10.0931L23.625 1.40625ZM22.0125 25.8337H24.5625L8.10563 4.02187H5.37187L22.0125 25.8337Z" fill="black"/>
</svg>

<svg xmlns="http://www.w3.org/2000/svg" width="30" height="30" fill="none" viewBox="0 0 30 30">
  <path fill="#fff" d="M23.625 1.406h4.601l-10.05 11.516L30 28.595h-9.257l-7.25-9.507-8.297 9.507H.593l10.749-12.319L0 1.406h9.493l6.553 8.687 7.579-8.687Zm-1.613 24.428h2.55L8.107 4.022H5.372l16.64 21.812Z"/>
</svg>
